svg/fluentui-system-icons/ic_fluent_door_arrow_right_16_filled.svg

<svg width="16" height="16" viewBox="0 0 16 16" fill="none" xmlns="http://www.w3.org/2000/svg">
<path d="M3 2.75C3 1.7835 3.7835 1 4.75 1H11.25C12.2165 1 13 1.7835 13 2.75V6.20703C12.5232 6.07217 12.02 6 11.5 6C8.46243 6 6 8.46243 6 11.5C6 12.8296 6.47182 14.0491 7.25716 15H4.75C3.7835 15 3 14.2165 3 13.25V2.75ZM6 9C6.55228 9 7 8.55228 7 8C7 7.44772 6.55228 7 6 7C5.44772 7 5 7.44772 5 8C5 8.55228 5.44772 9 6 9ZM11.5 16C13.9853 16 16 13.9853 16 11.5C16 9.01472 13.9853 7 11.5 7C9.01472 7 7 9.01472 7 11.5C7 13.9853 9.01472 16 11.5 16ZM11.8536 13.8536C11.6583 14.0488 11.3417 14.0488 11.1464 13.8536C10.9512 13.6583 10.9512 13.3417 11.1464 13.1464L12.2929 12H9.5C9.22386 12 9 11.7761 9 11.5C9 11.2239 9.22386 11 9.5 11H12.2929L11.1464 9.85355C10.9512 9.65829 10.9512 9.34171 11.1464 9.14645C11.3417 8.95118 11.6583 8.95118 11.8536 9.14645L13.8536 11.1464C13.9015 11.1944 13.9377 11.2496 13.9621 11.3086C13.9861 11.3667 13.9996 11.4303 14 11.497L14 11.5L14 11.503C13.9996 11.5697 13.9861 11.6333 13.9621 11.6914C13.938 11.7495 13.9026 11.804 13.8557 11.8514L13.8532 11.854L11.8536 13.8536Z" fill="#212121"/>
</svg>

<svg xmlns="http://www.w3.org/2000/svg" width="16" height="16"><path d="M3 2.75C3 1.784 3.784 1 4.75 1h6.5c.966 0 1.75.784 1.75 1.75v3.457A5.5 5.5 0 0 0 7.257 15H4.75A1.75 1.75 0 0 1 3 13.25V2.75ZM6 9a1 1 0 1 0 0-2 1 1 0 0 0 0 2Zm5.5 7a4.5 4.5 0 1 0 0-9 4.5 4.5 0 0 0 0 9Zm.354-2.146a.5.5 0 0 1-.708-.708L12.293 12H9.5a.5.5 0 0 1 0-1h2.793l-1.147-1.146a.5.5 0 0 1 .708-.708l2 2a.5.5 0 0 1 .146.351v.006a.5.5 0 0 1-.144.348l-.003.003-2 2Z"/></svg>
